X: 1039
T: Hicaz-Hümâyûn Seyir
C: Erol Bingöl
O: Turkey
F: http://compmusic.upf.edu/node/140
N: hicaz-humayun--seyir--sofyan--1--erol_bingol
N: makam= hicaz-humayun
N: form= seyir
N: usul= sofyan = 4/4
M: 4/4
L: 1/16
K: C _7/8B ^c  
Q: 1/4=60
%%MIDI tuningsystem comma53
G4 A4 A2B2 c2d2  | c3B cBBA A8  | A3B c2d2 e2f2 e2d2  | 
w:   |   |   | 
e3d c2ed d8  | d4 a4 a2_b2 a2g2  | f3e d2e2 c8  | \
w:   |   |   | 
A2B4A2 G2A2 B2d2  | 
w:   | 
c2A2 B2G2 A8  | |


